assets/icon-order-history.svg

<svg xmlns="http://www.w3.org/2000/svg" xmlns:xlink="http://www.w3.org/1999/xlink" width="50" height="52.6785888671875" viewBox="0 0 50 52.6785888671875" fill="none">
<path d="M24.284 0.178092C24.3117 0.163514 24.3397 0.149793 24.3681 0.13693C24.3966 0.124064 24.4253 0.112076 24.4544 0.100969C24.4835 0.0898581 24.5129 0.0796456 24.5425 0.0703321C24.5722 0.0610186 24.602 0.0526164 24.6322 0.0451263C24.6623 0.0376362 24.6926 0.0310732 24.723 0.0254369C24.7535 0.0197966 24.7841 0.015091 24.8148 0.0113196C24.8456 0.0075521 24.8764 0.0047226 24.9073 0.0028312C24.9382 0.000943662 24.9691 0 25 0C25.0309 0 25.0618 0.000943662 25.0927 0.0028312C25.1236 0.0047226 25.1544 0.0075521 25.1852 0.0113196C25.2159 0.015091 25.2465 0.0197966 25.277 0.0254369C25.3074 0.0310732 25.3377 0.0376362 25.3678 0.0451263C25.398 0.0526164 25.4278 0.0610186 25.4575 0.0703321C25.4872 0.0796456 25.5165 0.0898581 25.5456 0.100969C25.5747 0.112076 25.6034 0.124064 25.6319 0.13693C25.6603 0.149793 25.6883 0.163514 25.716 0.178092L49.0979 12.4954C49.109 12.5011 49.1201 12.5069 49.1312 12.5129L49.1374 12.5163L49.1498 12.5232L49.1529 12.525L49.159 12.5284L49.1646 12.5316L49.176 12.5382C49.551 12.756 49.798 13.0944 49.917 13.4711C49.9201 13.4805 49.923 13.4898 49.9258 13.4993C49.9441 13.5606 49.9591 13.6228 49.9706 13.6859L49.9711 13.6887C49.9752 13.7112 49.9789 13.7338 49.9821 13.7565L49.9824 13.7586C49.9874 13.7939 49.9913 13.8297 49.9942 13.8659L49.9967 13.9014C49.9988 13.9382 50 13.9754 50 14.0131L50 38.6656C50 38.6741 49.9999 38.6826 49.9998 38.6911L50 38.6656C50 39.0796 49.8585 39.4587 49.6236 39.7522C49.5893 39.7951 49.5531 39.8361 49.5148 39.8753L49.511 39.879C49.5068 39.8834 49.5025 39.8878 49.4982 39.8921C49.4801 39.9101 49.4616 39.9277 49.4427 39.9448L49.4395 39.9477C49.4203 39.9649 49.4008 39.9817 49.3809 39.998L49.3748 40.0029C49.2846 40.0761 49.188 40.1385 49.0852 40.19L25.7429 52.4863C25.6919 52.5145 25.6395 52.5398 25.5859 52.5621C25.5322 52.5843 25.4775 52.6034 25.4219 52.6194C25.3663 52.6353 25.31 52.6481 25.2531 52.6577C25.1961 52.6672 25.1388 52.6735 25.0812 52.6765L25.0755 52.6767L25.0555 52.6776L25.0481 52.6778C25.0446 52.678 25.0412 52.678 25.0377 52.6782L25.0326 52.6783C25.0173 52.6786 25.002 52.6787 24.9867 52.6785L25 52.6786C24.731 52.6786 24.4775 52.6087 24.2549 52.4851L0.884957 40.1743C0.868442 40.1656 0.852072 40.1566 0.835851 40.1473C0.819631 40.138 0.803565 40.1284 0.787661 40.1185C0.771756 40.1086 0.756017 40.0985 0.740444 40.088C0.724872 40.0775 0.709475 40.0668 0.694256 40.0558C0.679036 40.0448 0.663999 40.0335 0.649154 40.0219C0.634304 40.0104 0.619652 39.9985 0.605193 39.9865C0.590733 39.9743 0.576472 39.962 0.56242 39.9493C0.548367 39.9367 0.534524 39.9239 0.520894 39.9108C0.507261 39.8976 0.493849 39.8843 0.480658 39.8707C0.467468 39.857 0.454504 39.8432 0.441767 39.8291C0.429029 39.815 0.416528 39.8007 0.404261 39.7861C0.391995 39.7716 0.379969 39.7568 0.368185 39.7418C0.356404 39.7268 0.344872 39.7117 0.333587 39.6963C0.322306 39.6808 0.311279 39.6653 0.300509 39.6495C0.289738 39.6337 0.279231 39.6176 0.268988 39.6015C0.258742 39.5853 0.248765 39.5689 0.239058 39.5524C0.229351 39.5358 0.219918 39.5191 0.21076 39.5022C0.201599 39.4853 0.192719 39.4682 0.184122 39.451C0.175525 39.4338 0.167213 39.4164 0.159186 39.3989C0.151156 39.3814 0.143419 39.3637 0.135974 39.346C0.128526 39.3281 0.121372 39.3102 0.114513 39.2922C0.107654 39.2741 0.101094 39.2559 0.094834 39.2376C0.0885744 39.2193 0.0826162 39.2008 0.0769593 39.1823C0.0713025 39.1638 0.0659513 39.1452 0.0609047 39.1265C0.0558581 39.1078 0.0511224 39.0889 0.0466969 39.0701C0.042268 39.0512 0.0381513 39.0322 0.034347 39.0132C0.0305425 38.9941 0.0270521 38.9751 0.0238757 38.9559C0.0206994 38.9367 0.0178372 38.9175 0.015289 38.8983C0.0127445 38.879 0.0105157 38.8596 0.00860289 38.8403C0.00668983 38.8209 0.00509634 38.8016 0.00382225 38.7822C0.00254817 38.7628 0.00159164 38.7433 0.000952859 38.7239C0.000317551 38.7044 0 38.6849 0 38.6655L0 14.0131C0 13.8211 0.0293897 13.6393 0.0829764 13.4712C0.202784 13.092 0.452141 12.7517 0.83121 12.5341L0.847109 12.525C0.859582 12.518 0.87227 12.5112 0.885011 12.5044L0.853105 12.5216C0.869272 12.5126 0.8856 12.5039 0.902088 12.4954L24.284 0.178092ZM3.20193 16.7423L3.20193 37.6232L23.399 48.2625L23.399 27.3818L3.20193 16.7423ZM46.798 16.7423L38.0903 21.3295C38.0484 21.3541 38.0055 21.3767 37.9618 21.3972L26.601 27.3818L26.601 48.2625L46.798 37.623L46.798 16.7423ZM14.2574 9.2316L5.18084 14.0131L25 24.4534L33.7718 19.8325L14.2574 9.2316ZM25 3.57259L17.8046 7.36298L37.3191 17.9639L44.8191 14.0131L25 3.57259Z"   fill="#000000" >
</path>
</svg>

<svg xmlns="http://www.w3.org/2000/svg" width="50" height="52.679" viewBox="0 0 50 52.679" fill="none"><path d="M24.284.178a1.582 1.582 0 0 1 .53-.167 1.532 1.532 0 0 1 .902.167l23.382 12.317.033.018.006.003.013.007.003.002.006.003.006.004.011.006a1.636 1.636 0 0 1 .75.961c.018.062.033.124.045.187v.003l.011.068v.002c.005.035.01.07.012.107l.003.035c.002.037.003.074.003.112V38.691v-.025a1.734 1.734 0 0 1-.485 1.21l-.004.003a.79.79 0 0 1-.068.066l-.003.003-.06.05-.005.005c-.09.073-.187.136-.29.187L25.743 52.486a1.574 1.574 0 0 1-.49.172c-.057.01-.114.015-.172.018h-.005l-.02.002h-.069H25c-.269 0-.523-.07-.745-.193L.885 40.175a1.569 1.569 0 0 1-.48-.389 1.578 1.578 0 0 1-.194-.284A1.738 1.738 0 0 1 0 38.665V14.014c0-.192.03-.374.083-.542.12-.379.37-.72.748-.937l.016-.009.038-.02-.032.017c.016-.01.033-.018.05-.027L24.283.178zM3.202 16.742v20.881l20.197 10.64V27.382L3.202 16.742zm43.596 0L38.09 21.33a1.575 1.575 0 0 1-.128.068L26.6 27.382v20.88l20.197-10.639v-20.88zm-32.54-7.51L5.18 14.013 25 24.453l8.772-4.62L14.257 9.231zM25 3.572l-7.195 3.791 19.514 10.6 7.5-3.95L25 3.573z" fill="#000"/></svg>
